svg/aws-ec2-trainium.svg

<?xml version="1.0" encoding="UTF-8"?>
<svg xmlns="http://www.w3.org/2000/svg" xmlns:xlink="http://www.w3.org/1999/xlink" width="32" height="32" viewBox="0 0 32 32">
<path fill-rule="evenodd" fill="rgb(83.137255%, 35.686275%, 2.745098%)" fill-opacity="1" d="M 6 26 L 26 26 L 26 6 L 6 6 Z M 27.332031 8.667969 L 27.332031 11.332031 L 30.667969 11.332031 L 30.667969 12.667969 L 27.332031 12.667969 L 27.332031 15.332031 L 30.667969 15.332031 L 30.667969 16.667969 L 27.332031 16.667969 L 27.332031 19.332031 L 30.667969 19.332031 L 30.667969 20.667969 L 27.332031 20.667969 L 27.332031 23.332031 L 30.667969 23.332031 L 30.667969 24.667969 L 27.332031 24.667969 L 27.332031 26.667969 C 27.332031 27.035156 27.035156 27.332031 26.667969 27.332031 L 24.667969 27.332031 L 24.667969 30.667969 L 23.332031 30.667969 L 23.332031 27.332031 L 20.667969 27.332031 L 20.667969 30.667969 L 19.332031 30.667969 L 19.332031 27.332031 L 16.667969 27.332031 L 16.667969 30.667969 L 15.332031 30.667969 L 15.332031 27.332031 L 12.667969 27.332031 L 12.667969 30.667969 L 11.332031 30.667969 L 11.332031 27.332031 L 8.667969 27.332031 L 8.667969 30.667969 L 7.332031 30.667969 L 7.332031 27.332031 L 5.332031 27.332031 C 4.964844 27.332031 4.667969 27.035156 4.667969 26.667969 L 4.667969 24.667969 L 1.332031 24.667969 L 1.332031 23.332031 L 4.667969 23.332031 L 4.667969 20.667969 L 1.332031 20.667969 L 1.332031 19.332031 L 4.667969 19.332031 L 4.667969 16.667969 L 1.332031 16.667969 L 1.332031 15.332031 L 4.667969 15.332031 L 4.667969 12.667969 L 1.332031 12.667969 L 1.332031 11.332031 L 4.667969 11.332031 L 4.667969 8.667969 L 1.332031 8.667969 L 1.332031 7.332031 L 4.667969 7.332031 L 4.667969 5.332031 C 4.667969 4.964844 4.964844 4.667969 5.332031 4.667969 L 7.332031 4.667969 L 7.332031 1.332031 L 8.667969 1.332031 L 8.667969 4.667969 L 11.332031 4.667969 L 11.332031 1.332031 L 12.667969 1.332031 L 12.667969 4.667969 L 15.332031 4.667969 L 15.332031 1.332031 L 16.667969 1.332031 L 16.667969 4.667969 L 19.332031 4.667969 L 19.332031 1.332031 L 20.667969 1.332031 L 20.667969 4.667969 L 23.332031 4.667969 L 23.332031 1.332031 L 24.667969 1.332031 L 24.667969 4.667969 L 26.667969 4.667969 C 27.035156 4.667969 27.332031 4.964844 27.332031 5.332031 L 27.332031 7.332031 L 30.667969 7.332031 L 30.667969 8.667969 Z M 21.800781 15.980469 C 21.894531 15.925781 21.996094 15.882812 22.101562 15.851562 C 22.203125 15.824219 22.300781 15.808594 22.390625 15.808594 C 22.519531 15.808594 22.613281 15.839844 22.667969 15.902344 C 22.722656 15.964844 22.75 16.066406 22.75 16.210938 L 22.75 17.820312 L 23.300781 17.820312 L 23.300781 15.980469 C 23.480469 15.871094 23.683594 15.8125 23.894531 15.808594 C 24.023438 15.808594 24.113281 15.839844 24.171875 15.902344 C 24.226562 15.964844 24.253906 16.066406 24.253906 16.210938 L 24.253906 17.820312 L 24.804688 17.820312 L 24.804688 16.074219 C 24.804688 15.847656 24.742188 15.671875 24.621094 15.554688 C 24.5 15.433594 24.328125 15.375 24.109375 15.375 C 23.824219 15.375 23.523438 15.480469 23.214844 15.695312 C 23.105469 15.480469 22.90625 15.375 22.617188 15.375 C 22.476562 15.375 22.335938 15.398438 22.199219 15.449219 C 22.042969 15.507812 21.894531 15.585938 21.757812 15.683594 L 21.707031 15.445312 L 21.25 15.445312 L 21.25 17.820312 L 21.800781 17.820312 Z M 19.285156 17.890625 C 19.574219 17.886719 19.863281 17.777344 20.15625 17.558594 L 20.210938 17.820312 L 20.671875 17.820312 L 20.671875 15.445312 L 20.121094 15.445312 L 20.121094 17.265625 C 19.921875 17.390625 19.730469 17.457031 19.535156 17.457031 C 19.398438 17.457031 19.300781 17.417969 19.238281 17.347656 C 19.175781 17.277344 19.144531 17.164062 19.144531 17.011719 L 19.144531 15.445312 L 18.59375 15.445312 L 18.59375 17.175781 C 18.59375 17.40625 18.652344 17.582031 18.773438 17.707031 C 18.894531 17.828125 19.0625 17.890625 19.285156 17.890625 M 17.46875 17.820312 L 18.019531 17.820312 L 18.019531 15.445312 L 17.46875 15.445312 Z M 17.742188 15.050781 C 17.832031 15.054688 17.917969 15.027344 17.988281 14.96875 C 18.050781 14.90625 18.082031 14.820312 18.074219 14.734375 C 18.078125 14.648438 18.046875 14.5625 17.988281 14.5 C 17.917969 14.441406 17.832031 14.414062 17.742188 14.417969 C 17.652344 14.414062 17.566406 14.445312 17.5 14.5 C 17.441406 14.5625 17.410156 14.648438 17.414062 14.734375 C 17.40625 14.820312 17.4375 14.90625 17.5 14.96875 C 17.566406 15.027344 17.652344 15.054688 17.742188 15.050781 M 15.3125 16.015625 C 15.5 15.886719 15.71875 15.816406 15.941406 15.8125 C 16.078125 15.8125 16.179688 15.847656 16.242188 15.914062 C 16.304688 15.984375 16.335938 16.097656 16.335938 16.246094 L 16.335938 17.820312 L 16.886719 17.820312 L 16.886719 16.074219 C 16.882812 15.847656 16.824219 15.675781 16.707031 15.554688 C 16.589844 15.4375 16.417969 15.375 16.191406 15.378906 C 15.871094 15.378906 15.566406 15.488281 15.273438 15.710938 L 15.21875 15.445312 L 14.761719 15.445312 L 14.761719 17.820312 L 15.3125 17.820312 Z M 13.613281 17.820312 L 14.164062 17.820312 L 14.164062 15.445312 L 13.613281 15.445312 Z M 13.890625 15.050781 C 13.980469 15.054688 14.066406 15.027344 14.132812 14.972656 C 14.195312 14.910156 14.226562 14.824219 14.21875 14.734375 C 14.222656 14.648438 14.191406 14.566406 14.132812 14.503906 C 14.066406 14.445312 13.980469 14.414062 13.890625 14.421875 C 13.800781 14.414062 13.714844 14.445312 13.648438 14.503906 C 13.585938 14.5625 13.554688 14.648438 13.558594 14.734375 C 13.558594 14.839844 13.589844 14.910156 13.648438 14.972656 C 13.707031 15.027344 13.789062 15.054688 13.890625 15.054688 M 12.511719 16.828125 C 12.351562 16.796875 12.210938 16.78125 12.085938 16.777344 C 11.769531 16.777344 11.613281 16.902344 11.613281 17.15625 C 11.613281 17.265625 11.644531 17.351562 11.703125 17.410156 C 11.765625 17.472656 11.847656 17.5 11.953125 17.5 C 12.042969 17.5 12.132812 17.480469 12.230469 17.441406 C 12.328125 17.402344 12.421875 17.347656 12.511719 17.277344 Z M 12.511719 16.503906 L 12.511719 16.226562 C 12.511719 16.070312 12.480469 15.957031 12.410156 15.894531 C 12.34375 15.832031 12.222656 15.800781 12.050781 15.800781 C 11.808594 15.800781 11.53125 15.855469 11.214844 15.957031 L 11.214844 15.570312 C 11.332031 15.511719 11.476562 15.464844 11.644531 15.429688 C 11.816406 15.394531 11.984375 15.378906 12.15625 15.378906 C 12.464844 15.378906 12.695312 15.441406 12.84375 15.566406 C 12.988281 15.6875 13.0625 15.878906 13.0625 16.148438 L 13.0625 17.824219 L 12.582031 17.824219 L 12.542969 17.59375 C 12.433594 17.683594 12.3125 17.757812 12.179688 17.8125 C 12.054688 17.867188 11.921875 17.894531 11.785156 17.894531 C 11.589844 17.902344 11.398438 17.828125 11.253906 17.695312 C 11.117188 17.5625 11.042969 17.378906 11.050781 17.1875 C 11.050781 16.957031 11.136719 16.773438 11.300781 16.636719 C 11.46875 16.5 11.691406 16.433594 11.972656 16.433594 C 12.136719 16.433594 12.316406 16.457031 12.511719 16.503906 M 10.042969 16.101562 C 10.222656 15.984375 10.425781 15.925781 10.65625 15.925781 C 10.746094 15.925781 10.835938 15.933594 10.921875 15.945312 L 10.921875 15.441406 C 10.859375 15.433594 10.792969 15.429688 10.730469 15.429688 C 10.605469 15.429688 10.484375 15.457031 10.375 15.511719 C 10.265625 15.570312 10.152344 15.664062 10.023438 15.800781 L 9.953125 15.449219 L 9.492188 15.449219 L 9.492188 17.824219 L 10.042969 17.824219 Z M 7.855469 15.050781 L 6.84375 15.050781 L 6.84375 14.585938 L 9.4375 14.585938 L 9.4375 15.050781 L 8.425781 15.050781 L 8.425781 17.820312 L 7.855469 17.820312 Z M 7.855469 15.050781 "/>
</svg>

<svg role="img" viewBox="0 0 32 32" xmlns="http://www.w3.org/2000/svg"><path d="M6 26h20V6H6ZM27.332 8.668v2.664h3.336v1.336h-3.336v2.664h3.336v1.336h-3.336v2.664h3.336v1.336h-3.336v2.664h3.336v1.336h-3.336v2a.664.664 0 0 1-.664.664h-2v3.336h-1.336v-3.336h-2.664v3.336h-1.336v-3.336h-2.664v3.336h-1.336v-3.336h-2.664v3.336h-1.336v-3.336H8.668v3.336H7.332v-3.336h-2a.664.664 0 0 1-.664-.664v-2H1.332v-1.336h3.336v-2.664H1.332v-1.336h3.336v-2.664H1.332v-1.336h3.336v-2.664H1.332v-1.336h3.336V8.668H1.332V7.332h3.336v-2c0-.367.297-.664.664-.664h2V1.332h1.336v3.336h2.664V1.332h1.336v3.336h2.664V1.332h1.336v3.336h2.664V1.332h1.336v3.336h2.664V1.332h1.336v3.336h2c.367 0 .664.297.664.664v2h3.336v1.336Zm-5.531 7.312a1.4 1.4 0 0 1 .3-.128q.154-.043.29-.043.194 0 .277.093.082.093.082.309v1.61h.55v-1.84a1.16 1.16 0 0 1 .595-.172q.19 0 .277.093.082.093.082.309v1.61h.55v-1.747q0-.341-.183-.52-.182-.18-.512-.179c-.285 0-.586.105-.894.32q-.165-.321-.598-.32-.211-.001-.418.074a2 2 0 0 0-.441.235l-.051-.239h-.457v2.375h.55Zm-2.516 1.91q.433-.002.871-.331l.055.261h.46v-2.375h-.55v1.82c-.2.126-.39.192-.586.192q-.204-.002-.297-.11-.093-.106-.093-.335v-1.567h-.551v1.73q-.002.346.18.532.178.183.511.184m-1.816-.07h.55v-2.375h-.55Zm.273-2.77a.35.35 0 0 0 .246-.081.3.3 0 0 0 .086-.235.32.32 0 0 0-.086-.234.35.35 0 0 0-.246-.082.35.35 0 0 0-.242.082.32.32 0 0 0-.086.234.3.3 0 0 0 .086.235.35.35 0 0 0 .242.082m-2.43.962a1.17 1.17 0 0 1 .63-.203q.206 0 .3.105.094.104.094.332v1.574h.55v-1.746q-.002-.341-.179-.52-.175-.18-.516-.179-.48 0-.918.332l-.054-.262h-.457v2.375h.55Zm-1.699 1.808h.551v-2.375h-.55Zm.278-2.77a.34.34 0 0 0 .242-.081.3.3 0 0 0 .086-.235.32.32 0 0 0-.086-.234.34.34 0 0 0-.242-.082.34.34 0 0 0-.243.082.32.32 0 0 0-.09.234c0 .102.032.176.09.235q.09.082.243.082m-1.38 1.774q-.239-.048-.425-.05-.473-.002-.473.378.002.166.09.254c.063.063.145.09.25.09q.133 0 .277-.058.147-.06.282-.165Zm0-.324v-.277c0-.157-.03-.27-.1-.332q-.101-.094-.36-.094c-.242 0-.52.055-.836.156v-.387q.177-.087.43-.14.255-.052.511-.051.465 0 .688.188.217.181.219.582v1.675h-.481l-.039-.23a1.3 1.3 0 0 1-.363.219 1 1 0 0 1-.395.082.73.73 0 0 1-.531-.2.68.68 0 0 1-.203-.507c0-.23.086-.414.25-.551q.25-.204.672-.203.245 0 .539.07m-2.468-.402q.269-.176.613-.176.136.001.266.02v-.505a2 2 0 0 0-.192-.011.8.8 0 0 0-.355.082c-.11.058-.223.152-.352.289l-.07-.352h-.46v2.375h.55ZM7.855 15.05H6.844v-.465h2.593v.465h-1.01v2.77h-.57Zm0 0" fill="rgb(83.137256%, 35.686275%, 2.745098%)" fill-rule="evenodd"/></svg>
